src/assets/svg/car-brands/Ford_logo_flat.svg

<svg width="63" height="24" viewBox="0 0 63 24" fill="currentColor" xmlns="http://www.w3.org/2000/svg">
<path d="M52.0083 16.9446C52.0222 17.0339 52.1393 17.1193 52.2527 17.1598C52.2945 17.1737 52.3149 17.2016 52.2713 17.2964C51.9478 17.9898 51.6504 18.3896 51.2449 18.992C50.8717 19.5487 50.4515 19.983 49.9428 20.4008C49.1755 21.0358 48.1098 21.727 47.2288 21.2623C46.8375 21.0593 46.6681 20.5115 46.6757 20.0682C46.6943 18.8213 47.249 17.5413 48.2732 16.2833C49.5218 14.7461 50.9022 13.9488 51.8081 14.3846C52.7454 14.8317 52.4463 15.9168 52.0265 16.7686C51.994 16.8345 51.994 16.8903 52.0079 16.9442M62.0658 7.22941C62.1331 7.11044 62.0622 7.02356 61.912 7.02356C61.1291 7.02356 60.102 7.02533 59.2863 7.02533C59.092 7.02533 58.9917 7.04853 58.9001 7.22976C58.599 7.8066 54.9299 13.3055 54.2469 14.3734C54.1317 14.536 53.9913 14.5132 53.9751 14.3269C53.9058 13.6927 53.3581 12.9636 52.4951 12.6147C51.8375 12.348 51.1945 12.2996 50.5261 12.3884C49.3193 12.5506 48.2441 13.1871 47.2989 13.9051C45.8743 14.9881 44.6451 16.3919 43.0584 17.4291C42.1923 17.9937 41.0061 18.4861 40.2124 17.7511C39.4941 17.0851 39.5752 15.606 40.6743 14.462C40.79 14.3421 40.9289 14.4433 40.9071 14.5498C40.8034 15.0671 40.9303 15.5816 41.3234 15.9424C41.8029 16.3723 42.4891 16.4208 43.0765 16.1339C43.7695 15.7904 44.1768 15.1273 44.2954 14.3747C44.479 13.2073 43.5804 12.1777 42.4559 12.095C41.5424 12.0309 40.6664 12.3487 39.8129 13.0532C39.3849 13.4083 39.1419 13.6705 38.7717 14.1969C38.6816 14.3266 38.543 14.3395 38.5472 14.1481C38.589 12.6534 37.9714 11.8124 36.7358 11.785C35.7765 11.7618 34.7519 12.2825 33.9532 12.9193C33.0776 13.6224 32.3121 14.5543 31.4913 15.4299C31.3891 15.5377 31.3003 15.5326 31.2715 15.3234C31.2482 14.3331 30.9978 13.3739 30.5395 12.6927C30.3773 12.4557 30.0359 12.3386 29.7491 12.4984C29.6166 12.5709 29.156 12.7828 28.8204 13.0529C28.6541 13.19 28.589 13.3885 28.6629 13.6428C29.1053 15.1224 29.0082 16.8046 28.4078 18.2253C27.8565 19.5266 26.7854 20.7002 25.5263 21.0974C24.6969 21.3604 23.8347 21.2317 23.3011 20.4964C22.5684 19.4815 22.8643 17.7166 23.9566 16.2511C24.9205 14.9607 26.315 14.141 27.7058 13.6132C27.8693 13.55 27.9033 13.445 27.8568 13.306C27.7815 13.0774 27.6607 12.766 27.6119 12.6239C27.4841 12.2842 27.127 12.2293 26.6908 12.2767C25.6803 12.3943 24.7686 12.7405 23.8682 13.2227C21.5102 14.4854 20.3279 16.9292 19.8098 18.2367C19.5603 18.8648 19.347 19.2565 19.0713 19.6039C18.6996 20.0711 18.2329 20.4965 17.3797 21.2459C17.3025 21.3147 17.2449 21.4578 17.31 21.5911C17.3969 21.7714 17.8407 22.3982 17.9659 22.4541C18.1048 22.5224 18.266 22.4262 18.3306 22.3806C18.9277 21.9759 19.642 21.3344 19.9916 20.8993C20.1143 20.7501 20.2402 20.8129 20.3053 21.0392C20.6315 22.203 21.4857 23.1534 22.6669 23.5509C24.829 24.28 27.0715 23.2247 28.7643 21.3873C29.8401 20.2195 30.2283 19.4684 30.6407 18.9579C31.3395 18.0921 32.718 16.1551 34.3598 14.9115C34.962 14.4529 35.6744 14.103 36.0327 14.3354C36.3204 14.5217 36.4133 14.9548 35.9519 15.7939C34.2779 18.8508 31.8149 22.4423 31.3632 23.3132C31.2805 23.4642 31.3539 23.5831 31.511 23.5831C32.387 23.5788 33.2553 23.581 34.0505 23.581C34.1829 23.5763 34.242 23.5141 34.3084 23.4207C35.5931 21.4097 36.8021 19.4958 38.0979 17.517C38.1704 17.4004 38.2373 17.4891 38.2401 17.5402C38.268 17.9993 38.3795 18.6272 38.6523 19.0396C39.1422 19.8019 39.8363 20.1295 40.6062 20.1345C41.2188 20.1438 41.5287 20.0485 42.1893 19.8018C42.7268 19.6024 43.1583 19.3408 43.4895 19.104C43.6828 18.9692 43.7167 19.1946 43.7121 19.229C43.4147 20.8254 43.7818 22.717 45.3684 23.5013C47.2672 24.4375 49.3531 23.1216 50.5534 21.9337C50.671 21.8194 50.7969 21.8315 50.809 22.0782C50.8369 22.5318 51.0395 23.07 51.4147 23.4466C52.4206 24.4561 54.4502 24.056 56.4871 22.4794C57.7949 21.47 59.1633 20.0439 60.3993 18.5337C60.4458 18.4751 60.4793 18.3813 60.39 18.286C60.2018 18.089 59.9295 17.8636 59.7429 17.69C59.6578 17.6175 59.5328 17.6384 59.4613 17.6925C58.1943 18.8975 57.0538 20.2717 55.4054 21.4081C54.8495 21.7961 53.9634 22.1091 53.5655 21.5703C53.4103 21.3612 53.428 21.072 53.5795 20.6924C54.06 19.494 61.6691 7.90926 62.0641 7.226" fill="currentColor"/>
<path d="M26.2666 8.62732C26.2991 8.79926 26.3661 8.83275 26.4442 8.81835C26.8317 8.74074 27.2559 8.42192 27.507 8.05239C27.7356 7.71733 27.843 7.23383 27.6157 7.04009C27.4131 6.86583 27.0832 6.91505 26.8386 7.13114C26.3516 7.56146 26.2037 8.17203 26.2665 8.62767M6.87317 23.5397C4.03609 23.5583 1.53664 21.8062 1.24982 18.771C1.09043 17.0891 1.56583 15.5902 2.5176 14.3553C3.36216 13.2549 4.79122 12.3407 6.00085 12.1174C6.39446 12.0453 6.92334 12.0895 7.14199 12.3516C7.48494 12.7508 7.38638 13.1893 7.04343 13.3642C6.12056 13.8354 5.01011 14.6421 4.46064 15.7435C4.01499 16.6425 3.92495 17.726 4.60565 18.7581C5.74498 20.4783 8.92084 20.5256 11.8737 17.7823C12.605 17.1109 13.2595 16.4658 13.9247 15.7017C15.2253 14.2146 15.6579 13.6727 17.3867 11.2747C17.4053 11.2468 17.4146 11.2105 17.4053 11.1929C17.3913 11.1603 17.3681 11.1557 17.3166 11.151C16.1625 11.1836 15.1562 11.527 14.1782 12.2579C13.8966 12.4633 13.4912 12.4345 13.3138 12.164C13.1163 11.8583 13.258 11.4602 13.5829 11.2354C15.1562 10.1412 16.8748 9.94277 18.63 9.64656C18.6286 9.64656 18.7518 9.65119 18.8522 9.51921C19.5726 8.59453 20.1167 7.76044 20.8848 6.82531C21.6586 5.87652 22.6583 5.00526 23.422 4.35081C24.4881 3.43412 25.1718 3.12565 25.8667 2.74756C26.0498 2.65183 25.8434 2.53753 25.7877 2.53753C21.9083 1.8084 17.876 0.864907 14.0233 2.29119C11.355 3.28692 10.1857 5.40286 10.7481 6.81673C11.1482 7.81966 12.4673 7.98271 13.7022 7.3784C14.7278 6.87587 15.677 6.06593 16.3499 5.02331C16.7263 4.44428 17.5195 4.86203 17.0909 5.86748C15.9635 8.51733 13.8097 10.6192 11.1861 10.708C8.95335 10.7805 7.51276 9.13788 7.51745 7.11143C7.52675 3.11448 11.9763 0.481589 16.6526 0.0879814C22.2842 -0.377424 27.6182 1.12268 33.2098 1.80093C37.4939 2.31973 41.6013 2.33052 45.9075 1.34129C46.4165 1.23069 46.7737 1.55552 46.7405 2.06967C46.6987 2.81288 46.1229 3.52866 44.7047 4.30216C43.0917 5.18678 41.4043 5.4552 39.6419 5.46961C35.3805 5.50678 31.411 3.84399 27.3032 2.95142C27.3079 3.13126 27.3553 3.34546 27.2047 3.45899C24.9294 5.13728 22.8727 6.8416 21.4952 9.23536C21.4487 9.29066 21.472 9.34319 21.5542 9.33761C22.7502 9.27395 23.8257 9.24325 24.9422 9.15403C25.1374 9.13544 25.1448 9.08896 25.1276 8.94676C25.0286 8.12167 25.2698 7.18079 25.9956 6.53359C26.7384 5.86757 27.6685 5.79184 28.2851 6.27151C28.9861 6.81773 28.924 7.80007 28.5406 8.53677C28.1503 9.28425 27.5056 9.68404 26.8869 9.87815C26.8869 9.87815 26.7568 9.90604 26.7763 10.0241C26.7995 10.2128 27.6436 10.6799 27.7158 10.8044C27.7855 10.9229 27.7483 11.1065 27.6215 11.2473C27.5322 11.3495 27.3924 11.4452 27.2134 11.442C27.0689 11.4391 26.9811 11.389 26.7961 11.2891C26.4179 11.0842 25.9451 10.7472 25.6298 10.35C25.5224 10.2157 25.4676 10.2129 25.1994 10.2278C23.9912 10.2975 22.1073 10.4797 20.8309 10.6391C20.5214 10.6762 20.4758 10.7352 20.4122 10.8426C18.3771 14.1985 16.2041 17.8174 13.8183 20.2403C11.2594 22.8382 9.1323 23.5222 6.87424 23.5399" fill="currentColor"/>
</svg>

<svg xmlns="http://www.w3.org/2000/svg" width="63" height="24" fill="currentColor" viewBox="0 0 63 24"><path d="M52.008 16.945c.014.089.131.174.245.215.041.014.062.042.018.136-.323.694-.62 1.094-1.026 1.696a6.4 6.4 0 0 1-1.302 1.409c-.767.635-1.833 1.326-2.714.861-.392-.203-.56-.75-.553-1.194.018-1.247.573-2.527 1.597-3.785 1.249-1.537 2.63-2.334 3.535-1.898.937.447.638 1.532.218 2.384a.24.24 0 0 0-.018.175M62.066 7.23c.067-.119-.004-.205-.154-.205l-2.626.001c-.194 0-.294.024-.386.205-.301.577-3.97 6.076-4.653 7.143-.115.163-.256.14-.272-.046-.07-.634-.617-1.363-1.48-1.712-.657-.267-1.3-.315-1.969-.227-1.207.163-2.282.8-3.227 1.517-1.425 1.083-2.654 2.487-4.24 3.524-.867.565-2.053 1.057-2.847.322-.718-.666-.637-2.145.462-3.289.116-.12.255-.019.233.088-.104.517.023 1.032.416 1.392.48.43 1.166.479 1.754.192.693-.344 1.1-1.007 1.218-1.76.184-1.167-.715-2.196-1.84-2.279-.913-.064-1.789.254-2.642.958-.428.355-.671.617-1.041 1.144-.09.13-.229.143-.225-.049.042-1.495-.576-2.336-1.811-2.363-.96-.023-1.984.498-2.783 1.134-.875.703-1.64 1.635-2.462 2.51-.102.109-.19.104-.22-.106-.023-.99-.273-1.95-.732-2.63a.61.61 0 0 0-.79-.195c-.132.073-.593.285-.929.555-.166.137-.231.335-.157.59a6.92 6.92 0 0 1-.255 4.582c-.552 1.302-1.623 2.475-2.882 2.872-.83.263-1.691.135-2.225-.6-.733-1.015-.437-2.78.656-4.246.963-1.29 2.358-2.11 3.749-2.638.163-.063.197-.168.15-.307-.075-.229-.195-.54-.244-.682-.128-.34-.485-.395-.921-.347-1.01.117-1.922.464-2.823.946-2.358 1.262-3.54 3.706-4.058 5.014-.25.628-.463 1.02-.739 1.367-.371.467-.838.893-1.691 1.642a.3.3 0 0 0-.07.345c.087.18.53.807.656.863.139.068.3-.028.365-.073.597-.405 1.311-1.047 1.66-1.482.123-.149.25-.086.314.14a3.67 3.67 0 0 0 2.362 2.512c2.162.729 4.404-.326 6.097-2.164 1.076-1.168 1.464-1.919 1.877-2.43.699-.865 2.077-2.802 3.719-4.046.602-.458 1.314-.808 1.673-.576.287.187.38.62-.081 1.459-1.674 3.057-4.137 6.648-4.589 7.52-.082.15-.01.27.148.27.876-.005 1.744-.003 2.54-.003.132-.005.191-.067.257-.16 1.285-2.011 2.494-3.925 3.79-5.904.072-.117.14-.028.142.023.028.46.14 1.087.412 1.5.49.762 1.184 1.09 1.954 1.095.613.009.923-.087 1.583-.333.538-.2.97-.461 1.3-.698.194-.135.228.09.223.125-.297 1.596.07 3.488 1.656 4.272 1.9.936 3.985-.38 5.185-1.567.118-.115.244-.103.256.144.028.454.23.992.606 1.369 1.006 1.01 3.035.609 5.072-.968 1.308-1.009 2.676-2.435 3.912-3.945.047-.059.08-.153-.009-.248-.188-.197-.46-.422-.647-.596-.085-.073-.21-.052-.282.002-1.267 1.206-2.407 2.58-4.056 3.716-.556.388-1.442.701-1.84.162-.155-.209-.137-.498.015-.878.48-1.198 8.09-12.783 8.484-13.466"/><path d="M26.267 8.627c.032.172.1.206.177.191.388-.077.812-.396 1.063-.766.229-.335.336-.818.109-1.012-.203-.174-.533-.125-.777.091a1.73 1.73 0 0 0-.572 1.497M6.873 23.54c-2.837.018-5.336-1.734-5.623-4.769a6.13 6.13 0 0 1 1.268-4.416c.844-1.1 2.273-2.014 3.483-2.238.393-.072.922-.028 1.141.235.343.399.244.837-.099 1.012-.922.471-2.033 1.278-2.582 2.38-.446.898-.536 1.982.145 3.014 1.139 1.72 4.315 1.768 7.268-.976a25 25 0 0 0 2.05-2.08c1.301-1.487 1.734-2.03 3.463-4.427.018-.028.028-.065.018-.082-.014-.033-.037-.037-.088-.042-1.154.033-2.16.376-3.139 1.107-.281.205-.687.177-.864-.094-.198-.306-.056-.704.269-.929 1.573-1.094 3.292-1.292 5.047-1.588-.001 0 .122.004.222-.128.72-.924 1.265-1.759 2.033-2.694.774-.948 1.773-1.82 2.537-2.474 1.066-.917 1.75-1.225 2.445-1.603.183-.096-.024-.21-.08-.21-3.879-.73-7.911-1.673-11.764-.247-2.668.996-3.837 3.112-3.275 4.526.4 1.003 1.72 1.166 2.954.561a6.7 6.7 0 0 0 2.648-2.355c.376-.579 1.17-.161.74.844-1.126 2.65-3.28 4.752-5.904 4.841-2.233.072-3.673-1.57-3.669-3.597.01-3.997 4.46-6.63 9.136-7.023 5.631-.465 10.965 1.035 16.557 1.713 4.284.519 8.391.53 12.697-.46.51-.11.867.215.834.729-.042.743-.618 1.459-2.036 2.232-1.613.885-3.3 1.153-5.063 1.168-4.262.037-8.231-1.626-12.339-2.519.005.18.052.394-.098.508-2.276 1.678-4.332 3.383-5.71 5.776-.046.056-.023.108.06.103 1.195-.064 2.27-.095 3.387-.184.195-.019.203-.065.186-.207-.1-.825.142-1.766.868-2.413.742-.666 1.673-.742 2.29-.262.7.546.638 1.528.255 2.265-.39.747-1.035 1.147-1.654 1.341 0 0-.13.028-.11.146.022.189.867.656.939.78.07.119.032.303-.095.443a.53.53 0 0 1-.408.195c-.144-.003-.232-.053-.417-.153-.378-.205-.85-.542-1.166-.939-.108-.134-.162-.137-.43-.122-1.209.07-3.093.252-4.37.411-.309.037-.354.096-.418.204-2.035 3.355-4.208 6.974-6.594 9.397-2.559 2.598-4.686 3.282-6.944 3.3"/></svg>
